arkscan/icons/mandala_exchange.svg

<svg viewBox="0 0 20 21" fill="none" xmlns="http://www.w3.org/2000/svg">
  <g clip-path="url(#clip0_3072_39355)">
    <path
      d="M3.46526 18.0981C2.69628 16.7663 2.94678 15.3074 2.97321 15.2126C2.97976 15.1756 2.99786 15.1415 3.02492 15.1154C3.05197 15.0892 3.08661 15.0722 3.12387 15.0669C3.1896 15.0587 4.16185 14.9602 4.23301 14.9548C4.30417 14.9494 4.32781 15.0474 4.30926 15.0869C3.92889 15.8975 4.0736 16.8138 4.40146 17.3815C5.13003 18.6434 6.64891 19.0773 7.94272 18.3304C8.42363 18.0527 8.66157 17.8021 8.70285 17.7153C8.74412 17.6285 8.81467 17.5939 8.83501 17.6391C8.85534 17.6843 9.22554 18.4615 9.28069 18.6144C9.30122 18.6623 9.30504 18.7157 9.29154 18.7661C9.27805 18.8165 9.24802 18.8609 9.20628 18.8921C9.16053 18.9311 9.06969 19.0297 8.4833 19.3682C7.88448 19.7092 7.2074 19.889 6.51828 19.89C5.38317 19.89 4.20851 19.3855 3.46526 18.0981ZM10.2266 18.8355C10.1978 18.8113 10.1774 18.7786 10.1682 18.7421C10.1591 18.7056 10.1617 18.6671 10.1757 18.6322C10.2014 18.5712 10.6013 17.6797 10.6323 17.6156C10.6634 17.5514 10.7597 17.58 10.7845 17.6156C11.2952 18.3502 12.1595 18.683 12.8137 18.683C14.2679 18.683 15.401 17.5846 15.401 16.0907C15.401 15.5354 15.3031 15.2039 15.2488 15.1249C15.1945 15.0458 15.1998 14.9673 15.2488 14.9724C15.2978 14.9775 16.1546 15.0453 16.3142 15.074C16.3659 15.0803 16.414 15.1038 16.4508 15.1406C16.4875 15.1775 16.5109 15.2256 16.5171 15.2774C16.5279 15.3365 16.5679 15.4644 16.5679 16.1415C16.5679 17.8345 15.3758 19.8522 12.966 19.8522C11.4312 19.8522 10.2953 18.9059 10.2266 18.8355ZM8.54217 15.5631C9.41926 15.9883 10.2054 15.9199 11.001 15.5522C10.9729 16.3568 9.77254 18.6092 9.77254 18.6092C9.77254 18.6092 8.45265 15.9026 8.54217 15.5631ZM10.9876 17.2089C10.9704 17.1925 10.9568 17.1728 10.9475 17.1509C10.9383 17.1291 10.9335 17.1056 10.9335 17.0819C10.9335 17.0581 10.9383 17.0346 10.9475 17.0128C10.9568 16.991 10.9704 16.9712 10.9876 16.9548C11.0481 16.8856 11.4948 16.1161 11.4948 15.074C11.4948 14.032 10.7339 12.4816 10.7339 12.4816C10.7339 12.4816 12.0148 14.8826 14.3865 14.9215C14.5838 14.9248 14.5921 14.9398 14.6401 15.0232C14.6881 15.1066 14.8938 15.7134 14.8938 16.0398C14.8938 16.3662 14.843 16.4973 14.843 16.4973C14.843 16.4973 14.3149 15.7348 13.3718 15.7348C12.4823 15.7348 12.0021 16.5024 12.0021 17.3614C12.0052 17.602 12.0393 17.8412 12.1038 18.0731C11.4495 17.8995 11.0706 17.2997 10.9876 17.2089ZM7.23423 16.3916C6.78865 15.6198 5.88309 15.587 5.13933 16.0163C4.93246 16.1393 4.7424 16.2885 4.57388 16.4602C4.39648 15.8058 4.72638 15.1771 4.76308 15.0597C4.76877 15.0367 4.77905 15.015 4.79331 14.996C4.80757 14.9771 4.82552 14.9612 4.84607 14.9493C4.86662 14.9374 4.88936 14.9298 4.91292 14.927C4.93648 14.9241 4.96038 14.926 4.98317 14.9326C5.0734 14.9506 5.96371 14.9535 6.86611 14.4324C7.76852 13.9114 8.72994 12.476 8.72994 12.476C8.72994 12.476 7.29243 14.788 8.44686 16.8654C8.54293 17.0382 8.53409 17.053 8.48595 17.1364C8.43781 17.2197 8.01525 17.7016 7.73263 17.8648C7.45001 18.0279 7.31104 18.0495 7.31104 18.0495C7.31104 18.0495 7.70671 17.21 7.23423 16.3916ZM4.98399 12.1066C5.05434 13.0787 5.50668 13.7253 6.22289 14.2305C5.51207 14.6084 2.96121 14.6951 2.96121 14.6951C2.96121 14.6951 4.64505 12.1989 4.98399 12.1066V12.1066ZM13.3147 14.2099C14.1214 13.6629 14.4553 12.9479 14.5347 12.075C15.2173 12.5017 16.5679 14.6674 16.5679 14.6674C16.5679 14.6674 13.5641 14.4574 13.3147 14.2099ZM2.41869 14.3709C2.36207 14.3506 2.23128 14.3214 1.64489 13.9829C0.178717 13.1364 -0.971388 11.0931 0.235851 9.00206C1.00482 7.67028 2.39343 7.1575 2.48869 7.1332C2.52408 7.12042 2.5626 7.1191 2.59878 7.12945C2.63495 7.1398 2.66695 7.16128 2.69023 7.19085C2.73029 7.24366 3.30193 8.03632 3.34199 8.09538C3.38204 8.15445 3.3091 8.22373 3.26574 8.22754C2.37361 8.30333 1.65236 8.88687 1.3246 9.45461C0.596092 10.7165 0.979714 12.2489 2.27347 12.9959C2.75433 13.2735 3.09043 13.3543 3.18614 13.3466C3.28186 13.3389 3.34728 13.3829 3.3183 13.4228C3.28928 13.4628 2.8012 14.1724 2.69638 14.2963C2.67518 14.3246 2.64777 14.3477 2.61626 14.3638C2.58475 14.3799 2.54998 14.3885 2.51461 14.389C2.48184 14.3885 2.4494 14.3824 2.41869 14.3709ZM16.7752 14.3103C16.7351 14.2575 16.1631 13.4656 16.1231 13.4066C16.0831 13.3476 16.1558 13.2784 16.1993 13.2748C17.0908 13.1999 17.8113 12.6177 18.1384 12.0512C18.8653 10.7918 18.4807 9.26135 17.1869 8.51438C16.706 8.23675 16.3701 8.15582 16.2744 8.16324C16.1788 8.17066 16.1133 8.12685 16.1423 8.087C16.1713 8.04714 16.6584 7.33907 16.763 7.21519C16.7943 7.1736 16.8387 7.14371 16.889 7.13028C16.9393 7.11686 16.9926 7.12068 17.0405 7.14113C17.0971 7.16146 17.2278 7.19074 17.8143 7.52928C19.2804 8.37582 20.4317 10.417 19.2269 12.5039C18.4593 13.8331 17.0719 14.344 16.9767 14.368C16.9557 14.3736 16.9341 14.3765 16.9123 14.3767C16.8858 14.3775 16.8595 14.3719 16.8356 14.3603C16.8118 14.3488 16.791 14.3316 16.7752 14.3103ZM8.79902 13.7715C9.04377 13.0929 9.75337 11.4597 9.75337 11.4597C9.75337 11.4597 10.3957 12.8808 10.8041 13.7878C10.4487 13.9344 10.069 14.0134 9.68455 14.0206C9.14543 14.0205 8.84436 13.8303 8.79902 13.7714V13.7715ZM6.66411 11.4333C7.37417 11.3062 9.1434 11.1039 9.1434 11.1039C9.1434 11.1039 8.23378 12.3707 7.65252 13.1778C6.61008 12.3436 6.61999 11.5402 6.66411 11.4332V11.4333ZM10.3665 11.1092C10.3665 11.1092 11.9184 11.2635 12.9081 11.3634C12.7069 12.6829 12.0062 13.0764 11.8914 13.0916C11.4262 12.5404 10.3665 11.1092 10.3665 11.1092ZM15.7283 12.7687C15.6987 12.6818 15.2556 11.9101 14.3532 11.389C13.4508 10.868 11.7276 10.7519 11.7276 10.7519C11.7276 10.7519 14.4474 10.843 15.667 8.80859C15.7687 8.63933 15.7857 8.63958 15.8819 8.63973C15.9781 8.63989 16.6065 8.76518 16.8891 8.9284C17.1717 9.09162 17.2602 9.20106 17.2602 9.20106C17.2602 9.20106 16.3358 9.27731 15.8642 10.0939C15.4195 10.8642 15.8443 11.664 16.5881 12.0934C16.7979 12.2111 17.0221 12.3011 17.2551 12.3613C16.7777 12.841 16.0687 12.8693 15.9487 12.8958C15.9319 12.8996 15.9148 12.9016 15.8976 12.9017C15.8586 12.9014 15.8209 12.8882 15.7903 12.8641C15.7596 12.8401 15.7378 12.8065 15.7283 12.7687ZM3.57917 12.8693C3.48289 12.8693 2.85432 12.7442 2.57164 12.5811C2.28897 12.4179 2.20088 12.3083 2.20088 12.3083C2.20088 12.3083 3.12601 12.2313 3.59823 11.4129C4.04387 10.6411 3.61953 9.84047 2.87577 9.41104C2.66589 9.29336 2.44165 9.20336 2.20866 9.14327C2.68647 8.66246 3.39602 8.63353 3.51614 8.60685C3.53894 8.60026 3.56283 8.59835 3.58639 8.60122C3.60994 8.60409 3.63268 8.61168 3.65323 8.62355C3.67378 8.63541 3.69172 8.65131 3.70599 8.67027C3.72025 8.68924 3.73054 8.71089 3.73624 8.73392C3.76582 8.82105 4.20846 9.59353 5.11086 10.1145C6.01327 10.6356 7.73715 10.7504 7.73715 10.7504C7.73715 10.7504 5.01616 10.6614 3.79418 12.7C3.69435 12.8665 3.67595 12.8692 3.5841 12.8692L3.57917 12.8693ZM11.8606 8.32905C12.9026 9.16314 12.8931 9.96658 12.8489 10.0736C12.1389 10.2007 10.3696 10.4031 10.3696 10.4031C10.3696 10.4031 11.2792 9.1362 11.8606 8.32905ZM6.60499 10.1434C6.80623 8.82384 7.50689 8.43041 7.62162 8.41516C8.08687 8.96643 9.14655 10.3976 9.14655 10.3976C9.14655 10.3976 7.59462 10.2433 6.60499 10.1434ZM8.70905 7.71908C9.95243 7.23349 10.6435 7.64365 10.714 7.73535C10.4693 8.41394 9.75967 10.0472 9.75967 10.0472C9.75967 10.0472 9.11737 8.62601 8.70905 7.71908ZM2.94515 6.8394C2.94515 6.8394 5.94892 7.04948 6.19834 7.29688C5.3916 7.84392 5.05785 8.55891 4.9784 9.43178C4.29573 9.00511 2.94515 6.8394 2.94515 6.8394ZM13.2902 7.27624C14.001 6.89836 16.5518 6.81159 16.5518 6.81159C16.5518 6.81159 14.8681 9.30786 14.5291 9.40022C14.4587 8.42802 14.0064 7.7814 13.2902 7.27624ZM5.08006 6.58524C4.88238 6.58199 4.87399 6.56694 4.8259 6.48358C4.77782 6.40022 4.57175 5.79329 4.57175 5.46696C4.57175 5.14057 4.62258 5.00948 4.62258 5.00948C4.62258 5.00948 5.15168 5.77195 6.09668 5.77195C6.9879 5.77195 7.46912 5.0044 7.46912 4.14535C7.46608 3.90475 7.43191 3.66555 7.36746 3.43372C8.02288 3.60736 8.40259 4.20711 8.48574 4.29785C8.50288 4.31428 8.51651 4.33401 8.52581 4.35585C8.53511 4.37769 8.5399 4.40118 8.53988 4.42492C8.53988 4.44866 8.53508 4.47215 8.52578 4.49399C8.51648 4.51582 8.50286 4.53556 8.48574 4.552C8.4251 4.62113 7.97743 5.39071 7.97743 6.43275C7.97743 7.47479 8.7399 9.02514 8.7399 9.02514C8.7399 9.02514 7.45641 6.62418 5.08006 6.58524ZM11.0132 4.63765C10.9174 4.46513 10.9261 4.45034 10.9744 4.36713C11.0226 4.28392 11.4453 3.80234 11.728 3.63913C12.0107 3.47591 12.1496 3.4543 12.1496 3.4543C12.1496 3.4543 11.7531 4.29302 12.2248 5.10967C12.6696 5.87991 13.5746 5.91199 14.3184 5.48256C14.5252 5.35968 14.7153 5.21056 14.884 5.03891C15.0606 5.69219 14.7307 6.32026 14.6936 6.43753C14.6879 6.46054 14.6776 6.48217 14.6633 6.50111C14.649 6.52005 14.6311 6.53593 14.6105 6.54779C14.59 6.55965 14.5673 6.56725 14.5437 6.57014C14.5202 6.57303 14.4963 6.57115 14.4735 6.56461C14.3833 6.54681 13.4935 6.54468 12.5911 7.0657C11.6887 7.58672 10.7265 9.02086 10.7265 9.02086C10.7265 9.02086 12.1653 6.711 11.0132 4.63765ZM15.1472 6.40993C15.5281 5.60039 15.3842 4.68543 15.057 4.11882C14.33 2.85933 12.8121 2.42726 11.5183 3.17448C11.0375 3.45202 10.7994 3.70256 10.7579 3.78903C10.7164 3.87559 10.6458 3.91046 10.6257 3.86527C10.6057 3.82019 10.2361 3.04445 10.1811 2.89186C10.1607 2.84394 10.1569 2.79054 10.1704 2.74023C10.184 2.68991 10.214 2.64561 10.2557 2.61442C10.3015 2.57548 10.3924 2.47718 10.9788 2.13844C12.4449 1.29195 14.7883 1.31548 15.9932 3.4024C16.7608 4.73164 16.5092 6.18856 16.4825 6.28315C16.4758 6.32017 16.4577 6.35415 16.4306 6.38029C16.4036 6.40642 16.369 6.42339 16.3318 6.42879C16.2661 6.43702 15.2942 6.5365 15.2231 6.54163H15.2177C15.151 6.54193 15.1294 6.44825 15.1472 6.40993H15.1472ZM4.21593 6.53441C4.16678 6.52933 3.30839 6.46142 3.14848 6.43275C3.09671 6.42651 3.04855 6.40309 3.01168 6.36622C2.97482 6.32936 2.95139 6.28119 2.94515 6.22943C2.93427 6.17031 2.89432 6.04237 2.89432 5.3653C2.89432 3.67232 4.08885 1.65463 6.50333 1.65463C8.04123 1.65463 9.17949 2.60085 9.24821 2.67125C9.27701 2.69548 9.29742 2.72818 9.30655 2.76468C9.31567 2.80119 9.31305 2.83965 9.29904 2.87457C9.27327 2.93557 8.87267 3.82705 8.84156 3.8912C8.81045 3.95535 8.71398 3.92678 8.68907 3.8912C8.1774 3.15659 7.31155 2.82374 6.65582 2.82374C5.19875 2.82374 4.06344 3.9222 4.06344 5.41613C4.06344 5.97141 4.16154 6.30288 4.21593 6.38192C4.26859 6.45852 4.26534 6.53472 4.22045 6.53467C4.21892 6.53466 4.21745 6.53458 4.21593 6.53441ZM9.74046 2.8976C9.74046 2.8976 11.0604 5.60395 10.9709 5.9437C10.0938 5.51855 9.30768 5.58697 8.51208 5.95463C8.54024 5.14998 9.74046 2.8976 9.74046 2.8976Z"
      fill="#60CD80" />
  </g>
  <defs>
    <clipPath id="clip0_3072_39355">
      <rect width="20" height="20" fill="white" transform="translate(0 0.507812)" />
    </clipPath>
  </defs>
</svg>

<svg viewBox="0 0 20 21" fill="none" xmlns="http://www.w3.org/2000/svg"><g clip-path="url(#a)"><path d="M3.465 18.098c-.769-1.332-.518-2.79-.492-2.885a.178.178 0 0 1 .15-.146 124.33 124.33 0 0 1 1.11-.112c.071-.006.095.092.076.132-.38.81-.235 1.727.092 2.294.729 1.262 2.248 1.696 3.542.95.48-.278.719-.529.76-.616.041-.087.112-.121.132-.076.02.045.39.823.446.975a.232.232 0 0 1-.075.278c-.045.04-.136.138-.723.476a3.983 3.983 0 0 1-1.965.522c-1.135 0-2.31-.505-3.053-1.792Zm6.762.738a.18.18 0 0 1-.051-.204c.025-.06.425-.952.456-1.016.031-.065.128-.036.152 0 .511.734 1.375 1.067 2.03 1.067 1.454 0 2.587-1.098 2.587-2.592 0-.556-.098-.887-.152-.966-.055-.08-.05-.158 0-.153.049.005.906.073 1.065.102a.233.233 0 0 1 .203.203c.01.06.05.187.05.865 0 1.692-1.191 3.71-3.601 3.71-1.535 0-2.67-.946-2.74-1.017Zm-1.685-3.273c.877.425 1.663.357 2.459-.01-.028.804-1.228 3.056-1.228 3.056s-1.32-2.706-1.23-3.046Zm2.446 1.646a.174.174 0 0 1-.054-.127.178.178 0 0 1 .054-.127c.06-.07.507-.839.507-1.881s-.761-2.592-.761-2.592 1.28 2.4 3.652 2.44c.198.003.206.018.254.101.048.084.254.69.254 1.017 0 .326-.051.457-.051.457s-.528-.762-1.471-.762c-.89 0-1.37.767-1.37 1.626.003.241.037.48.102.712-.654-.174-1.033-.773-1.116-.864Zm-3.754-.817c-.445-.772-1.35-.805-2.095-.376a2.79 2.79 0 0 0-.565.444c-.178-.654.152-1.283.19-1.4a.177.177 0 0 1 .22-.127c.09.018.98.02 1.882-.5.903-.522 1.864-1.957 1.864-1.957s-1.438 2.312-.283 4.39c.096.172.087.187.039.27-.048.084-.47.566-.753.729-.283.163-.422.184-.422.184s.396-.839-.077-1.657Zm-2.25-4.285c.07.972.523 1.618 1.239 2.123-.71.378-3.262.465-3.262.465s1.684-2.496 2.023-2.588Zm8.33 2.103c.807-.547 1.141-1.262 1.22-2.135.683.427 2.034 2.592 2.034 2.592s-3.004-.21-3.253-.457Zm-10.895.16c-.057-.02-.188-.049-.774-.387-1.466-.847-2.616-2.89-1.41-4.98.77-1.333 2.158-1.846 2.254-1.87a.18.18 0 0 1 .201.058c.04.053.612.845.652.904.04.06-.033.129-.076.133-.892.075-1.614.659-1.941 1.227-.729 1.261-.345 2.794.948 3.54.481.279.817.36.913.352.096-.008.161.036.132.076-.029.04-.517.75-.622.873a.232.232 0 0 1-.277.075Zm14.356-.06c-.04-.053-.612-.844-.652-.903-.04-.06.033-.129.076-.132.892-.075 1.612-.657 1.94-1.224.726-1.26.342-2.79-.952-3.537-.481-.277-.817-.358-.913-.35-.095.007-.16-.037-.132-.077.03-.04.516-.748.621-.872a.233.233 0 0 1 .277-.074c.057.02.188.05.774.388 1.466.847 2.618 2.888 1.413 4.975-.768 1.33-2.155 1.84-2.25 1.864a.259.259 0 0 1-.065.009.164.164 0 0 1-.137-.067ZM8.8 13.771c.245-.678.954-2.311.954-2.311s.643 1.42 1.051 2.328a3.088 3.088 0 0 1-1.12.233c-.539 0-.84-.19-.885-.25Zm-2.135-2.338c.71-.127 2.48-.33 2.48-.33l-1.491 2.075c-1.043-.834-1.033-1.638-.989-1.745Zm3.703-.324 2.541.254c-.201 1.32-.902 1.713-1.017 1.729-.465-.552-1.524-1.983-1.524-1.983Zm5.361 1.66c-.03-.087-.472-.859-1.375-1.38-.902-.521-2.625-.637-2.625-.637s2.72.091 3.939-1.943c.102-.17.119-.17.215-.17s.725.126 1.007.29c.283.163.371.272.371.272s-.924.076-1.396.893c-.445.77-.02 1.57.724 2 .21.117.434.207.667.267-.477.48-1.186.508-1.306.535a.238.238 0 0 1-.051.006.175.175 0 0 1-.17-.133Zm-12.149.1c-.096 0-.725-.125-1.007-.288-.283-.163-.371-.273-.371-.273s.925-.077 1.397-.895c.446-.772.022-1.573-.722-2.002a2.787 2.787 0 0 0-.667-.268c.477-.48 1.187-.51 1.307-.536a.176.176 0 0 1 .22.127c.03.087.472.86 1.375 1.38.902.522 2.626.636 2.626.636s-2.72-.089-3.943 1.95c-.1.167-.118.17-.21.17H3.58Zm8.282-4.54c1.042.834 1.032 1.638.988 1.745-.71.127-2.48.33-2.48.33s.91-1.268 1.492-2.075Zm-5.256 1.814c.201-1.32.902-1.713 1.017-1.728.465.551 1.525 1.983 1.525 1.983l-2.542-.255ZM8.709 7.72c1.243-.486 1.934-.075 2.005.016-.245.679-.954 2.312-.954 2.312S9.117 8.626 8.709 7.72Zm-5.764-.88s3.004.21 3.253.458c-.806.547-1.14 1.262-1.22 2.135-.682-.427-2.033-2.593-2.033-2.593Zm10.345.437c.711-.378 3.262-.464 3.262-.464S14.868 9.308 14.529 9.4c-.07-.972-.523-1.619-1.239-2.124Zm-8.21-.69c-.198-.004-.206-.02-.254-.102-.048-.084-.254-.69-.254-1.017 0-.326.05-.458.05-.458s.53.763 1.475.763c.89 0 1.372-.768 1.372-1.627a2.788 2.788 0 0 0-.102-.711c.656.173 1.036.773 1.119.864a.176.176 0 0 1 0 .254c-.06.07-.509.839-.509 1.88 0 1.043.763 2.593.763 2.593s-1.284-2.4-3.66-2.44Zm5.933-1.948c-.096-.173-.087-.188-.039-.27.049-.084.471-.566.754-.729.283-.163.422-.185.422-.185s-.397.839.075 1.656c.445.77 1.35.802 2.093.373.207-.123.397-.272.566-.444.177.653-.153 1.281-.19 1.399a.176.176 0 0 1-.22.127c-.09-.018-.98-.02-1.883.5-.902.522-1.864 1.956-1.864 1.956s1.438-2.31.286-4.383Zm4.134 1.772c.381-.81.237-1.725-.09-2.291-.727-1.26-2.245-1.692-3.539-.945-.48.278-.719.529-.76.615-.042.087-.112.121-.132.076-.02-.045-.39-.82-.445-.973a.233.233 0 0 1 .075-.278c.046-.039.136-.137.723-.476 1.466-.846 3.81-.823 5.014 1.264.768 1.33.516 2.787.49 2.881a.18.18 0 0 1-.151.146c-.066.008-1.038.107-1.109.113h-.005c-.067 0-.089-.094-.07-.132Zm-10.931.124c-.05-.005-.908-.073-1.068-.101a.233.233 0 0 1-.203-.204c-.01-.059-.05-.187-.05-.864 0-1.693 1.194-3.71 3.608-3.71 1.538 0 2.676.946 2.745 1.016a.179.179 0 0 1 .051.204c-.026.06-.426.952-.457 1.016-.032.064-.128.036-.153 0-.512-.734-1.377-1.067-2.033-1.067-1.457 0-2.593 1.098-2.593 2.592 0 .555.099.887.153.966.053.077.05.153.004.153h-.004ZM9.74 2.898s1.32 2.706 1.23 3.046c-.876-.425-1.662-.357-2.458.01C8.54 5.15 9.74 2.899 9.74 2.899Z" fill="#60CD80"/></g><defs><clipPath id="a"><path fill="#fff" transform="translate(0 .508)" d="M0 0h20v20H0z"/></clipPath></defs></svg>
